X:1
T:Title
%%score { ( 1 3 ) | ( 2 4 5 ) }
L:1/8
M:4/4
K:Eb
V:1 treble nm="Grand Piano"
V:3 treble 
V:2 treble 
V:4 treble 
V:5 treble 
V:1
 z4 z2 z[Q:1/4=100] E |[M:3/4] z2 c4 | z2 e4 | [Ge]3 [G_d] [GB]>[Ge] | [B_d]2 [Ac]2 z2 |[M:1/8] E | %6
[M:3/4] z2 c4 | z2 e4 | [Gf]3 [Ge] [G_d]>G |[M:5/8] B2 A2 z |[M:1/8] [GB] | %11
[M:3/4] [GB]>[EG] [GB]3 [GB] | [Ge]>[GB] [Ge]3 [Ge] | [Ad]3 [Af] [FA]>[Ac] |[M:5/8] [Ac]2 [GB]2 z | %15
[M:1/8] [GB] |[M:3/4] [GB]>[EG] [GB]3 [GB] | [Ge]>[GB] [Ge]3 [Ge] | [Ad]3 [Ac] [FA]>[DF] | %19
[M:5/8] F2 E2 z |[M:1/8] E |[M:3/4] z2 c4 | z2 e4 | [Gf]3 [Ge] [G_d]>G | %24
[M:13/8] B2 .A3 z z z z z z z2 |] %25
V:2
 z4 z2 z [A,C] |[M:3/4] z2 E4 | z2 E4 | [E,B,]3 [_D,B,] [E,E]>[E,E] | [A,E]2 [A,E]2 z2 | %5
[M:1/8] [A,C] |[M:3/4] z2 E4[K:treble] | z2 E4 | [E,E]3 [E,C] [E,B,]>[E,B,E] | %9
[M:5/8] [A,_DE]2 [A,CE]2 z |[M:1/8] [E,E] |[M:3/4] [E,E]>[E,B,] [E,E]3 [E,E] | %12
 [E,B,]>[E,B,] [E,B,]3 [E,B,] | [F,B,]3 [B,,B,] [B,,B,]>[D,B,] |[M:5/8] [E,E]2 [E,E]2 z | %15
[M:1/8] [E,E] |[M:3/4] [E,E]>[E,B,] [E,E]3 [E,E] | [E,B,]>[E,B,] [E,B,]3 [E,B,] | %18
 [B,,B,]3 [B,,B,] [B,,B,]>[B,,B,] |[M:5/8] [E,A,_D]2 [E,G,]2 z |[M:1/8] [A,C] | %21
[M:3/4][K:treble] z2 E4 | z2 E4 | [E,E]3 [E,C] [E,B,]>[E,B,E] | %24
[M:13/8] [A,_DE]2 .[A,CE]3 z z z z z z z2 |] %25
V:3
 x8 |[M:3/4] E>A z z/ C/ CG | A>c z z/ C/ Ce | x6 | x6 |[M:1/8] x |[M:3/4] E>A z z/ C/ CG | %7
 A>c z z/ C/ Ce | x6 |[M:5/8] x5 |[M:1/8] x |[M:3/4] x6 | x6 | x6 |[M:5/8] x5 |[M:1/8] x | %16
[M:3/4] x6 | x6 | x6 |[M:5/8] x5 |[M:1/8] x |[M:3/4] E>A z z/ C/ CG | A>c z z/ C/ Ce | x6 | %24
[M:13/8] x13 |] %25
V:4
 x8 |[M:3/4] z z/ E/ z z/ A,/ A,[A,CE] | E>E z z/ A,/ A,[A,CA] | x6 | x6 |[M:1/8] x | %6
[M:3/4] z z/ E/ z z/ A,/ A,[K:treble][A,CE] | E>E z z/ A,/ A,[A,CA] | x6 |[M:5/8] x5 |[M:1/8] x | %11
[M:3/4] x6 | x6 | x6 |[M:5/8] x5 |[M:1/8] x |[M:3/4] x6 | x6 | x6 |[M:5/8] x5 |[M:1/8] x | %21
[M:3/4][K:treble] z z/ E/ z z/ A,/ A,[A,CE] | E>E z z/ A,/ A,[A,CA] | x6 |[M:13/8] x13 |] %25
V:5
 x8 |[M:3/4] [A,C]4 z2 | [A,C]4 z2 | x6 | x6 |[M:1/8] x |[M:3/4] [A,C]4 z2[K:treble] | [A,C]4 z2 | %8
 x6 |[M:5/8] x5 |[M:1/8] x |[M:3/4] x6 | x6 | x6 |[M:5/8] x5 |[M:1/8] x |[M:3/4] x6 | x6 | x6 | %19
[M:5/8] x5 |[M:1/8] x |[M:3/4][K:treble] [A,C]4 z2 | [A,C]4 z2 | x6 |[M:13/8] x13 |] %25

